svg/color/zec.svg

<svg width="64" height="65" viewBox="0 0 64 65" fill="none" xmlns="http://www.w3.org/2000/svg">
<g clip-path="url(#clip0_11313_5522)">
<rect y="0.303711" width="64" height="64" rx="32" fill="white"/>
<path d="M32.334 59.1224C17.7522 59.1224 5.849 47.2074 5.849 32.6377C5.849 18.0559 17.7643 6.15271 32.334 6.15271C46.9158 6.15271 58.8187 18.068 58.8187 32.6377C58.8187 47.2195 46.9158 59.1224 32.334 59.1224Z" fill="url(#paint0_linear_11313_5522)"/>
<path d="M32 64.3037C14.4 64.3037 0 49.9037 0 32.3037C0 14.7037 14.4 0.303711 32 0.303711C49.6 0.303711 64 14.7037 64 32.3037C64 49.9037 49.6 64.3037 32 64.3037ZM32 7.41897C18.3153 7.41897 7.11526 18.619 7.11526 32.3037C7.11526 45.9884 18.3153 57.1884 32 57.1884C45.6847 57.1884 56.8847 45.9884 56.8847 32.3037C56.8847 18.619 45.6847 7.41897 32 7.41897Z" fill="black"/>
<path d="M31.2589 40.9716H45.1257V47.9051H36.9439V53.7716H29.8287V48.0869H21.2954C21.2954 45.7716 20.9439 43.4687 21.4772 41.3354C21.6589 40.2687 22.8954 39.2019 23.7922 38.1354C26.4589 34.9354 29.1257 31.7354 31.9742 28.5354C33.0407 27.2869 34.1075 26.2201 35.356 24.8022H22.0227V17.8687H29.8407V12.0029H36.7742V17.6861H45.3074C45.3074 20.0011 45.6589 22.3044 45.1257 24.4376C44.9439 25.5044 43.7075 26.5709 42.8104 27.6376C40.1439 30.8376 37.4772 34.0376 34.6287 37.2376C33.5617 38.4869 32.4954 39.7231 31.2589 40.9716Z" fill="black"/>
</g>
<rect x="0.5" y="0.803711" width="63" height="63" rx="31.5" stroke="#070B14" stroke-opacity="0.15"/>
<defs>
<linearGradient id="paint0_linear_11313_5522" x1="14.149" y1="50.799" x2="50.7106" y2="14.2374" gradientUnits="userSpaceOnUse">
<stop stop-color="#CF8724"/>
<stop offset="1" stop-color="#FDCE58"/>
</linearGradient>
<clipPath id="clip0_11313_5522">
<rect y="0.303711" width="64" height="64" rx="32" fill="white"/>
</clipPath>
</defs>
</svg>

<svg xmlns="http://www.w3.org/2000/svg" width="64" height="65" fill="none" viewBox="0 0 64 65"><g clip-path="url(#zec_svg-a)"><rect width="64" height="64" y=".304" fill="#fff" rx="32"/><path fill="url(#zec_svg-b)" d="M32.334 59.122c-14.582 0-26.485-11.915-26.485-26.484 0-14.582 11.915-26.485 26.485-26.485 14.582 0 26.485 11.915 26.485 26.485 0 14.581-11.903 26.484-26.485 26.484"/><path fill="#000" d="M32 64.304c-17.6 0-32-14.4-32-32s14.4-32 32-32 32 14.4 32 32-14.4 32-32 32m0-56.885c-13.685 0-24.885 11.2-24.885 24.885 0 13.684 11.2 24.884 24.885 24.884s24.885-11.2 24.885-24.884S45.685 7.419 32 7.419"/><path fill="#000" d="M31.259 40.972h13.867v6.933h-8.182v5.867h-7.115v-5.685h-8.534c0-2.315-.351-4.618.182-6.752.182-1.066 1.418-2.133 2.315-3.2 2.667-3.2 5.334-6.4 8.182-9.6 1.067-1.248 2.134-2.315 3.382-3.733H22.023V17.87h7.818v-5.866h6.933v5.683h8.533c0 2.315.352 4.618-.181 6.752-.182 1.066-1.418 2.133-2.316 3.2-2.666 3.2-5.333 6.4-8.181 9.6-1.067 1.249-2.134 2.485-3.37 3.734"/></g><rect width="63" height="63" x=".5" y=".804" stroke="#070B14" stroke-opacity=".15" rx="31.5"/><defs><linearGradient id="zec_svg-b" x1="14.149" x2="50.711" y1="50.799" y2="14.237" gradientUnits="userSpaceOnUse"><stop stop-color="#CF8724"/><stop offset="1" stop-color="#FDCE58"/></linearGradient><clipPath id="zec_svg-a"><rect width="64" height="64" y=".304" fill="#fff" rx="32"/></clipPath></defs></svg>
